components/brave_wallet_ui/page/screens/swap/assets/lp-icons/step.svg

<svg width="14" height="16" viewBox="0 0 14 16" fill="none" xmlns="http://www.w3.org/2000/svg">
<g clip-path="url(#clip0_1545_16102)">
<path fill-rule="evenodd" clip-rule="evenodd" d="M13.6499 11.8551L13.6496 4.14636L6.96731 0.288025L6.9676 7.99986L0.287109 11.8565L6.96969 15.7143L13.6458 11.8602L13.6499 11.8625V11.8579L13.6522 11.8565L13.6499 11.8551Z" fill="#64C557"/>
<path d="M0.28935 4.14629L6.97162 0.287964L6.97133 8.00414L0.289062 11.8625L0.28935 4.14629Z" fill="#118AB2"/>
<path d="M6.97265 0.280518L13.6552 4.13836L11.4277 5.42431L4.74512 1.56647L6.97265 0.280518Z" fill="#00F8B7"/>
<path d="M11.4225 5.422L11.4226 7.99406L4.74032 4.13572L4.74023 1.56366L11.4225 5.422Z" fill="#09BD8E"/>
<path d="M4.73632 4.13965L11.4189 7.99749L9.19137 9.28344L2.50879 5.4256L4.73632 4.13965Z" fill="#FFE3A3"/>
<path d="M9.21741 9.29679L9.21749 11.8689L2.53524 8.01048L2.53516 5.43842L9.21741 9.29679Z" fill="#FFBB1D"/>
<path d="M2.51464 7.99847L9.19718 11.8563L6.96969 13.1423L0.287109 9.28442L2.51464 7.99847Z" fill="#FF965E"/>
<path d="M6.96548 13.14L6.96556 15.7121L0.283301 11.8537L0.283203 9.28162L6.96548 13.14Z" fill="#D94C00"/>
<path d="M11.4261 5.42281L13.6535 4.13666L13.6532 11.8529L11.4258 13.139L11.4261 5.42281Z" fill="#06D6A0"/>
<path d="M9.19357 9.28184L11.421 7.99573L11.4208 13.1399L9.19336 14.426L9.19357 9.28184Z" fill="#FFD166"/>
<path d="M6.96106 13.1407L9.18847 11.8546L9.18838 14.4267L6.96094 15.7128L6.96106 13.1407Z" fill="#F3722C"/>
</g>
<defs>
<clipPath id="clip0_1545_16102">
<rect width="13.5385" height="16" fill="white" transform="translate(0.230469)"/>
</clipPath>
</defs>
</svg>

<svg xmlns="http://www.w3.org/2000/svg" width="14" height="16" fill="none"><g clip-path="url(#a)"><path fill="#64C557" fill-rule="evenodd" d="M13.65 11.855V4.146L6.967.288V8l-6.68 3.857 6.683 3.857 6.676-3.854.004.003v-.005l.002-.002h-.002Z" clip-rule="evenodd"/><path fill="#118AB2" d="M.29 4.146 6.971.288v7.716L.288 11.863V4.146Z"/><path fill="#00F8B7" d="m6.973.28 6.682 3.858-2.227 1.286-6.683-3.858L6.973.281Z"/><path fill="#09BD8E" d="M11.422 5.422v2.572L4.74 4.136V1.564l6.682 3.858Z"/><path fill="#FFE3A3" d="m4.736 4.14 6.683 3.857L9.19 9.283 2.51 5.426 4.736 4.14Z"/><path fill="#FFBB1D" d="M9.217 9.297v2.572L2.535 8.01V5.438l6.682 3.859Z"/><path fill="#FF965E" d="m2.515 7.998 6.682 3.858-2.227 1.286L.287 9.284l2.228-1.286Z"/><path fill="#D94C00" d="M6.965 13.14v2.572L.284 11.854V9.282l6.682 3.858Z"/><path fill="#06D6A0" d="m11.426 5.423 2.227-1.286v7.716l-2.227 1.286V5.423Z"/><path fill="#FFD166" d="m9.194 9.282 2.227-1.286v5.144l-2.228 1.286V9.282Z"/><path fill="#F3722C" d="m6.961 13.14 2.227-1.285v2.572l-2.227 1.286V13.14Z"/></g><defs><clipPath id="a"><path fill="#fff" d="M.23 0h13.54v16H.23z"/></clipPath></defs></svg>
